X: 139
T:Indian Point
% Nottingham Music Database
S:Trad, arr Phil Rowe
M:6/8
K:Em
"Em"B,EF G2A|"Em"BAG FED|"C"CEF G2A|"C"BAG BAG|"D"FED A,2D|
"D""d"FEF " ""d"AG" ""d#"F|1"Em""e"EFG BAG|"Bm"F3 FED:|2"Em""Em"GFE "Bm""D"FED\
|"Em""C"E3 -E2B
|:"Em""Bm"Bef gfe|"C"cef gfe|"D"dfg agf|"D""Em"gfe " ""D"fed|
"Em""Bm"Bef " ""Em"gfe|"C"ceg "Am"a2a|"Em"bag "B7"fgf|1"Em"e3 "B7"edc:|2\
"Em"e3 -e3||<end>
<start>
